lib/brands/logos/android.svg

<svg xmlns="http://www.w3.org/2000/svg" fill="none" aria-hidden="true" viewBox="0 0 114 103"><g id="Android"><g id="Group"><g id="Union"><path fill="black" d="M90.5775 79.5815C91.8589 79.5815 92.8976 78.5428 92.8976 77.2614C92.8976 75.98 91.8589 74.9413 90.5775 74.9413C89.2962 74.9413 88.2574 75.98 88.2574 77.2614C88.2574 78.5428 89.2962 79.5815 90.5775 79.5815Z"/><path fill="black" fill-rule="evenodd" d="M47.2167 82.6107C43.4928 82.6107 39.6637 85.5948 39.6637 90.818C39.6637 95.593 43.0304 98.9657 47.2167 98.9657C50.6723 98.9657 52.2125 96.6463 52.2125 96.6463V97.6573C52.2125 98.1352 52.6643 98.6684 53.2235 98.6684H55.7214V75.1171H52.2125V84.9598C52.2125 84.9598 50.6594 82.6107 47.2167 82.6107ZM47.8418 85.8212C50.9073 85.8212 52.5154 88.5172 52.5154 90.8168C52.5154 93.3781 50.6061 95.8107 47.8483 95.8107C45.5429 95.8107 43.2335 93.9436 43.2335 90.783C43.2335 87.93 45.2209 85.8212 47.8418 85.8212Z" clip-rule="evenodd"/><path fill="black" d="M22.7737 97.6571C22.7737 98.2815 23.2456 98.6682 23.7847 98.6682L26.2826 98.6681V90.3419C26.2826 88.1513 27.7486 85.8246 30.2106 85.8246C32.4922 85.8246 33.4788 87.7802 33.4788 89.3904V97.5976C33.4788 98.1329 33.9099 98.6681 34.5493 98.6681H36.9877V88.6172C36.9877 85.7123 34.9125 82.6057 31.0154 82.6057C28.6311 82.6057 27.0777 83.7151 26.2825 84.9103V82.9673H22.7737V97.6571Z"/><path fill="black" fill-rule="evenodd" d="M2.85001 90.8179C2.85001 85.5947 6.6792 82.6107 10.4031 82.6107C13.8458 82.6107 15.3988 84.9598 15.3988 84.9598V82.9675H18.9077V98.6683H16.4099C15.8506 98.6683 15.3988 98.1352 15.3988 97.6573V96.6463C15.3988 96.6463 13.8587 98.9657 10.4031 98.9657C6.21674 98.9657 2.85001 95.593 2.85001 90.8179ZM15.7018 90.8168C15.7018 88.5172 14.0937 85.8212 11.0282 85.8212C8.40726 85.8212 6.41992 87.93 6.41992 90.783C6.41992 93.9435 8.72926 95.8107 11.0347 95.8107C13.7925 95.8106 15.7018 93.3781 15.7018 90.8168Z" clip-rule="evenodd"/><path fill="black" d="M59.5872 97.6571C59.5872 98.2815 60.0592 98.6682 60.5983 98.6682H63.0961V90.7557C63.0961 88.5651 64.4404 86.2383 66.9024 86.2383C67.8141 86.2383 68.5677 86.5357 68.5677 86.5357V82.9079C68.5677 82.9079 67.9642 82.7889 67.3187 82.7889C65.0034 82.7889 63.7001 84.1182 63.0961 85.5841V82.9673H59.5872V97.6571Z"/><path fill="black" d="M89.8587 98.6682C89.3196 98.6682 88.8477 98.2815 88.8477 97.6571V82.9673H92.3566V98.6682L89.8587 98.6682Z"/><path fill="black" fill-rule="evenodd" d="M95.0923 90.818C95.0923 85.5948 98.9215 82.6107 102.645 82.6107C106.088 82.6107 107.641 84.9598 107.641 84.9598V75.1171H111.15V98.6684H108.652C108.093 98.6684 107.641 98.1352 107.641 97.6573V96.6463C107.641 96.6463 106.101 98.9657 102.645 98.9657C98.459 98.9657 95.0923 95.593 95.0923 90.818ZM107.944 90.8168C107.944 88.5172 106.336 85.8212 103.27 85.8212C100.65 85.8212 98.6622 87.93 98.6622 90.783C98.6622 93.9436 100.972 95.8107 103.277 95.8107C106.035 95.8107 107.944 93.3781 107.944 90.8168Z" clip-rule="evenodd"/><path fill="black" fill-rule="evenodd" d="M69.6371 90.7899C69.6371 85.5164 73.9218 82.6053 77.8217 82.6053C82.6081 82.6053 86.1157 86.3276 86.1157 90.8203C86.1157 94.4816 83.3918 98.9662 77.8132 98.9662C73.2867 98.9662 69.6371 95.5954 69.6371 90.7899ZM82.543 90.7998C82.543 88.0557 80.5314 85.8821 77.8345 85.8821C75.3482 85.8821 73.1467 87.8363 73.1467 90.8467C73.1467 93.8078 75.4613 95.7456 77.8425 95.7456C80.4076 95.7456 82.543 93.5914 82.543 90.7998Z" clip-rule="evenodd"/></g><path id="Vector" fill="#3DDC84" d="M83.4295 22.7198L92.4073 7.16777C92.9139 6.29591 92.6076 5.18841 91.7475 4.68179C90.8874 4.17518 89.7682 4.46971 89.2733 5.34157L80.1777 21.0939C73.2382 17.9246 65.4269 16.1573 57.0264 16.1573C48.6259 16.1573 40.8145 17.9246 33.875 21.0939L24.7794 5.34157C24.2728 4.46971 23.1653 4.17518 22.2934 4.68179C21.4216 5.18841 21.127 6.29591 21.6337 7.16777L30.6114 22.7198C15.1301 31.1085 4.6442 46.7783 2.91231 65.1226H111.141C109.409 46.7782 98.9228 31.1083 83.4297 22.7198H83.4295ZM32.1784 49.9241C29.6689 49.9241 27.6424 47.8858 27.6424 45.3881C27.6424 42.8785 29.6807 40.8521 32.1784 40.8521C34.688 40.8521 36.7144 42.8903 36.7144 45.3881C36.7263 47.8858 34.688 49.9241 32.1784 49.9241ZM81.8626 49.9241C79.3531 49.9241 77.3266 47.8858 77.3266 45.3881C77.3266 42.8785 79.3649 40.8521 81.8626 40.8521C84.3722 40.8521 86.3987 42.8903 86.3987 45.3881C86.4104 47.8858 84.3722 49.9241 81.8626 49.9241Z"/></g></g></svg>

<svg xmlns="http://www.w3.org/2000/svg" fill="none" aria-hidden="true" viewBox="0 0 114 103"><g fill="#000"><path d="M90.578 79.582a2.32 2.32 0 1 0 0-4.64 2.32 2.32 0 0 0 0 4.64Z"/><path fill-rule="evenodd" d="M47.217 82.61c-3.724 0-7.553 2.985-7.553 8.208 0 4.775 3.366 8.148 7.553 8.148 3.455 0 4.995-2.32 4.995-2.32v1.011c0 .478.452 1.011 1.011 1.011h2.498v-23.55h-3.508v9.842s-1.554-2.35-4.996-2.35Zm.625 3.211c3.065 0 4.673 2.696 4.673 4.996 0 2.561-1.909 4.994-4.667 4.994-2.305 0-4.614-1.867-4.614-5.028 0-2.853 1.987-4.962 4.608-4.962Z" clip-rule="evenodd"/><path d="M22.774 97.657c0 .624.472 1.011 1.01 1.011h2.499v-8.326c0-2.19 1.466-4.517 3.928-4.517 2.281 0 3.268 1.955 3.268 3.565v8.208c0 .535.43 1.07 1.07 1.07h2.439v-10.05c0-2.906-2.075-6.012-5.973-6.012-2.384 0-3.937 1.11-4.733 2.304v-1.943h-3.508v14.69Z"/><path fill-rule="evenodd" d="M2.85 90.818c0-5.223 3.83-8.207 7.553-8.207 3.443 0 4.996 2.349 4.996 2.349v-1.992h3.509v15.7H16.41c-.56 0-1.011-.533-1.011-1.01v-1.012s-1.54 2.32-4.996 2.32c-4.186 0-7.553-3.373-7.553-8.148Zm12.852-.001c0-2.3-1.608-4.996-4.674-4.996-2.62 0-4.608 2.109-4.608 4.962 0 3.16 2.31 5.028 4.615 5.028 2.758 0 4.667-2.433 4.667-4.994Z" clip-rule="evenodd"/><path d="M59.587 97.657c0 .624.472 1.011 1.011 1.011h2.498v-7.912c0-2.19 1.344-4.518 3.806-4.518a5.05 5.05 0 0 1 1.666.298v-3.628s-.604-.12-1.25-.12c-2.315 0-3.618 1.33-4.222 2.796v-2.617h-3.509v14.69Zm30.272 1.011c-.54 0-1.011-.387-1.011-1.01v-14.69h3.509v15.7h-2.498Z"/><path fill-rule="evenodd" d="M95.092 90.818c0-5.223 3.83-8.207 7.553-8.207 3.443 0 4.996 2.349 4.996 2.349v-9.843h3.509v23.551h-2.498c-.559 0-1.011-.533-1.011-1.01v-1.012s-1.54 2.32-4.996 2.32c-4.186 0-7.553-3.373-7.553-8.148Zm12.852-.001c0-2.3-1.608-4.996-4.674-4.996-2.62 0-4.608 2.109-4.608 4.962 0 3.16 2.31 5.028 4.615 5.028 2.758 0 4.667-2.433 4.667-4.994Zm-38.307-.027c0-5.274 4.285-8.185 8.185-8.185 4.786 0 8.294 3.723 8.294 8.215 0 3.662-2.724 8.146-8.303 8.146-4.526 0-8.176-3.37-8.176-8.176Zm12.906.01c0-2.744-2.012-4.918-4.709-4.918-2.486 0-4.687 1.954-4.687 4.965 0 2.96 2.314 4.899 4.695 4.899 2.566 0 4.701-2.155 4.701-4.946Z" clip-rule="evenodd"/></g><path fill="#3DDC84" d="m83.43 22.72 8.977-15.552c.507-.872.2-1.98-.66-2.486a1.8 1.8 0 0 0-2.474.66l-9.095 15.752c-6.94-3.17-14.751-4.937-23.152-4.937-8.4 0-16.212 1.768-23.151 4.937L24.779 5.342a1.814 1.814 0 0 0-2.486-.66 1.814 1.814 0 0 0-.66 2.486l8.978 15.552C15.131 31.109 4.644 46.778 2.912 65.123h108.229C109.409 46.778 98.923 31.108 83.43 22.72ZM32.178 49.924a4.538 4.538 0 0 1-4.536-4.536 4.538 4.538 0 0 1 4.536-4.536 4.538 4.538 0 0 1 4.536 4.536c.012 2.498-2.026 4.536-4.536 4.536Zm49.685 0a4.538 4.538 0 0 1-4.536-4.536 4.538 4.538 0 0 1 4.536-4.536 4.538 4.538 0 0 1 4.536 4.536c.011 2.498-2.027 4.536-4.536 4.536Z"/></svg>
